dist/images/ico/ico_search_01.svg

<svg width="18" height="19" viewBox="0 0 18 19" fill="none" xmlns="http://www.w3.org/2000/svg">
<path d="M12.5006 11.9716H11.7106L11.4306 11.7016C12.6306 10.3016 13.2506 8.39157 12.9106 6.36157C12.4406 3.58157 10.1206 1.36157 7.32063 1.02157C3.09063 0.501573 -0.469374 4.06157 0.0506256 8.29157C0.390626 11.0916 2.61063 13.4116 5.39063 13.8816C7.42063 14.2216 9.33063 13.6016 10.7306 12.4016L11.0006 12.6816V13.4716L15.2506 17.7216C15.6606 18.1316 16.3306 18.1316 16.7406 17.7216C17.1506 17.3116 17.1506 16.6416 16.7406 16.2316L12.5006 11.9716ZM6.50063 11.9716C4.01063 11.9716 2.00063 9.96157 2.00063 7.47157C2.00063 4.98157 4.01063 2.97157 6.50063 2.97157C8.99063 2.97157 11.0006 4.98157 11.0006 7.47157C11.0006 9.96157 8.99063 11.9716 6.50063 11.9716Z" fill="#A4A4A4"/>
</svg>

<svg width="18" height="19" fill="none" xmlns="http://www.w3.org/2000/svg"><path d="M12.5 11.972h-.79l-.28-.27a6.5 6.5 0 001.48-5.34c-.47-2.78-2.79-5-5.59-5.34a6.505 6.505 0 00-7.27 7.27c.34 2.8 2.56 5.12 5.34 5.59a6.5 6.5 0 005.34-1.48l.27.28v.79l4.25 4.25c.41.41 1.08.41 1.49 0 .41-.41.41-1.08 0-1.49l-4.24-4.26zm-6 0c-2.49 0-4.5-2.01-4.5-4.5s2.01-4.5 4.5-4.5 4.5 2.01 4.5 4.5-2.01 4.5-4.5 4.5z" fill="#A4A4A4"/></svg>
